; generated by PrusaSlicer 2.3.3+win64 on 2021-08-31 at 12:59:26 UTC

; 

; external perimeters extrusion width = 0.45mm
; perimeters extrusion width = 0.45mm
; infill extrusion width = 0.45mm
; solid infill extrusion width = 0.45mm
; top infill extrusion width = 0.45mm
; support material extrusion width = 0.38mm
; first layer extrusion width = 0.42mm

M201 X500 Y500 Z100 E5000 ; sets maximum accelerations, mm/sec^2
M203 X500 Y500 Z10 E60 ; sets maximum feedrates, mm/sec
M204 P500 R1000 T500 ; sets acceleration (P, T) and retract acceleration (R), mm/sec^2
M205 X8.00 Y8.00 Z0.40 E5.00 ; sets the jerk limits, mm/sec
M205 S0 T0 ; sets the minimum extruding and travel feed rate, mm/sec
M107
;TYPE:Custom
G90 ; use absolute coordinates
M83 ; extruder relative mode
M104 S120 ; set extruder temp for auto bed leveling
M140 S60 ; set bed temp
G4 S10 ; wait for partial warmup
G28 ; home all
G29 ; Auto bed level
G1 Z50 F240
G1 X2 Y10 F3000
M104 S220 ; set extruder temp
M190 S60 ; wait for bed temp
M109 S220 ; wait for extruder temp
G1 Z0.28 F240
G92 E0
G1 Y140 E10 F1500 ; intro line
G1 X2.3 F5000
G92 E0
G1 Y10 E10 F1200 ; intro line
G92 E0
G21 ; set units to millimeters
G90 ; use absolute coordinates
M83 ; use relative distances for extrusion
; Filament gcode
;LAYER_CHANGE
;Z:0.2
;HEIGHT:0.2
;BEFORE_LAYER_CHANGE
G92 E0
;0.2


G1 E-5.00000 F3600.000
G1 Z0.100 F9000.000
G1 Z0.200
;AFTER_LAYER_CHANGE
;0.2
G1 Z0.300
G1 X183.057 Y157.948
G1 Z0.200
G1 E5.00000 F2400.000
M204 S500
;TYPE:Skirt
;WIDTH:0.42
G1 F1200.000
G1 X181.856 Y159.828 E0.06997
G1 X180.373 Y161.971 E0.08168
G1 X178.799 Y164.093 E0.08283
G1 X177.070 Y166.266 E0.08709
G1 X175.372 Y168.258 E0.08208
G1 X173.593 Y170.210 E0.08280
G1 X171.597 Y172.255 E0.08958
G1 X169.700 Y174.069 E0.08232
G1 X167.746 Y175.819 E0.08224
G1 X165.696 Y177.535 E0.08381
G1 X163.610 Y179.166 E0.08303
G1 X161.355 Y180.809 E0.08747
G1 X159.160 Y182.296 E0.08313
G1 X156.829 Y183.763 E0.08636
G1 X154.451 Y185.146 E0.08624
G1 X152.213 Y186.352 E0.07970
G1 X149.923 Y187.492 E0.08023
G1 X147.525 Y188.590 E0.08267
G1 X145.104 Y189.604 E0.08231
G1 X142.590 Y190.559 E0.08433
G1 X140.025 Y191.436 E0.08497
G1 X137.457 Y192.218 E0.08419
G1 X134.779 Y192.934 E0.08690
G1 X132.097 Y193.553 E0.08633
G1 X129.394 Y194.078 E0.08632
G1 X126.668 Y194.512 E0.08654
G1 X124.001 Y194.843 E0.08426
G1 X121.515 Y195.070 E0.07829
G1 X119.036 Y195.218 E0.07785
G1 X116.346 Y195.292 E0.08437
G1 X113.679 Y195.276 E0.08363
G1 X110.639 Y195.148 E0.09542
G1 X108.150 Y194.957 E0.07824
G1 X105.652 Y194.686 E0.07880
G1 X102.648 Y194.254 E0.09515
G1 X100.186 Y193.813 E0.07843
G1 X97.733 Y193.293 E0.07861
G1 X94.788 Y192.561 E0.09516
G1 X92.377 Y191.872 E0.07864
G1 X89.988 Y191.107 E0.07862
G1 X87.146 Y190.088 E0.09468
G1 X84.811 Y189.158 E0.07880
G1 X82.519 Y188.160 E0.07837
G1 X79.927 Y186.927 E0.09003
G1 X77.398 Y185.610 E0.08937
G1 X75.217 Y184.380 E0.07852
G1 X73.078 Y183.084 E0.07843
G1 X70.539 Y181.421 E0.09515
G1 X68.500 Y179.983 E0.07824
G1 X66.492 Y178.471 E0.07880
G1 X64.134 Y176.562 E0.09514
G1 X62.241 Y174.918 E0.07860
G1 X60.406 Y173.221 E0.07839
G1 X58.304 Y171.139 E0.09274
G1 X56.561 Y169.288 E0.07973
G1 X54.877 Y167.384 E0.07969
G1 X52.952 Y165.045 E0.09498
G1 X51.426 Y163.055 E0.07863
G1 X49.964 Y161.020 E0.07857
G1 X48.352 Y158.605 E0.09103
G1 X46.995 Y156.415 E0.08079
G1 X45.718 Y154.196 E0.08027
G1 X44.374 Y151.666 E0.08985
G1 X43.237 Y149.337 E0.08124
G1 X42.180 Y146.980 E0.08100
G1 X41.160 Y144.490 E0.08436
G1 X40.226 Y141.970 E0.08430
G1 X39.385 Y139.445 E0.08342
G1 X38.619 Y136.857 E0.08463
G1 X37.863 Y133.923 E0.09500
G1 X37.323 Y131.474 E0.07862
G1 X36.859 Y129.010 E0.07863
G1 X36.404 Y126.017 E0.09492
G1 X36.112 Y123.527 E0.07860
G1 X35.900 Y121.037 E0.07836
G1 X35.753 Y118.180 E0.08968
G1 X35.708 Y115.319 E0.08972
G1 X35.754 Y112.791 E0.07928
G1 X35.879 Y110.268 E0.07919
G1 X36.130 Y107.300 E0.09340
G1 X36.429 Y104.796 E0.07906
G1 X36.806 Y102.303 E0.07908
G1 X37.356 Y99.362 E0.09382
G1 X37.906 Y96.900 E0.07906
G1 X38.532 Y94.456 E0.07911
G1 X39.382 Y91.564 E0.09454
G1 X40.169 Y89.193 E0.07830
G1 X41.032 Y86.840 E0.07861
G1 X42.149 Y84.092 E0.09300
G1 X43.187 Y81.771 E0.07973
G1 X44.294 Y79.491 E0.07945
G1 X45.715 Y76.809 E0.09518
G1 X46.965 Y74.636 E0.07861
G1 X48.279 Y72.509 E0.07838
G1 X49.896 Y70.080 E0.09149
G1 X51.389 Y67.995 E0.08039
G1 X52.944 Y65.964 E0.08022
G1 X54.773 Y63.739 E0.09030
G1 X56.477 Y61.804 E0.08084
G1 X58.244 Y59.923 E0.08093
G1 X60.155 Y58.020 E0.08457
G1 X62.210 Y56.110 E0.08795
G1 X64.184 Y54.396 E0.08199
G1 X66.219 Y52.743 E0.08220
G1 X68.636 Y50.917 E0.09497
G1 X70.694 Y49.473 E0.07883
G1 X72.791 Y48.097 E0.07863
G1 X75.353 Y46.541 E0.09399
G1 X77.551 Y45.307 E0.07903
G1 X79.784 Y44.145 E0.07894
G1 X82.533 Y42.834 E0.09548
G1 X84.822 Y41.838 E0.07828
G1 X87.140 Y40.915 E0.07822
G1 X89.996 Y39.890 E0.09513
G1 X92.384 Y39.126 E0.07862
G1 X94.789 Y38.439 E0.07842
G1 X97.733 Y37.707 E0.09514
G1 X100.186 Y37.187 E0.07861
G1 X102.648 Y36.746 E0.07843
G1 X105.652 Y36.314 E0.09515
G1 X108.145 Y36.043 E0.07861
G1 X110.636 Y35.852 E0.07834
G1 X113.497 Y35.729 E0.08980
G1 X116.362 Y35.708 E0.08983
G1 X119.018 Y35.781 E0.08333
G1 X121.670 Y35.942 E0.08329
G1 X124.316 Y36.191 E0.08333
G1 X126.940 Y36.527 E0.08296
G1 X129.512 Y36.942 E0.08168
G1 X132.079 Y37.444 E0.08202
G1 X134.687 Y38.043 E0.08390
G1 X137.291 Y38.735 E0.08447
G1 X139.839 Y39.505 E0.08347
G1 X142.391 Y40.369 E0.08448
G1 X144.895 Y41.313 E0.08388
G1 X147.376 Y42.345 E0.08427
G1 X149.804 Y43.451 E0.08366
G1 X152.211 Y44.647 E0.08426
G1 X154.565 Y45.917 E0.08387
G1 X156.896 Y47.278 E0.08464
G1 X159.155 Y48.701 E0.08369
G1 X161.373 Y50.204 E0.08403
G1 X163.542 Y51.783 E0.08412
G1 X165.650 Y53.428 E0.08384
G1 X167.814 Y55.240 E0.08849
G1 X169.787 Y57.012 E0.08315
G1 X171.699 Y58.846 E0.08306
G1 X173.545 Y60.739 E0.08291
G1 X175.323 Y62.687 E0.08269
G1 X177.072 Y64.736 E0.08446
G1 X178.764 Y66.862 E0.08519
G1 X180.361 Y69.012 E0.08397
G1 X181.919 Y71.267 E0.08594
G1 X183.397 Y73.570 E0.08581
G1 X184.758 Y75.858 E0.08347
G1 X185.948 Y78.040 E0.07792
G1 X188.499 Y79.184 E0.08766
G1 X191.016 Y81.029 E0.09784
G1 X193.239 Y83.184 E0.09707
G1 X196.602 Y88.701 E0.20258
G1 X198.080 Y94.947 E0.20127
G1 X198.080 Y115.168 E0.63400
G1 X198.034 Y115.618 E0.01417
G1 X198.080 Y116.070 E0.01427
G1 X198.080 Y136.296 E0.63415
G1 X196.432 Y142.920 E0.21404
G1 X194.919 Y145.676 E0.09857
G1 X194.518 Y146.220 E0.02119
G1 X193.528 Y148.664 E0.08271
G1 X190.964 Y152.428 E0.14277
G1 X186.930 Y156.003 E0.16902
G1 X183.847 Y157.677 E0.10999
G1 X183.114 Y157.929 E0.02430
G1 X182.993 Y157.571 F9000.000
G1 F1200.000
G1 X182.811 Y157.633 E0.00602
G1 X181.544 Y159.617 E0.07380
G1 X180.065 Y161.753 E0.08148
G1 X178.502 Y163.860 E0.08224
G1 X176.781 Y166.024 E0.08668
G1 X175.087 Y168.011 E0.08188
G1 X173.321 Y169.949 E0.08221
G1 X171.334 Y171.984 E0.08917
G1 X169.441 Y173.794 E0.08212
G1 X167.496 Y175.536 E0.08185
G1 X165.456 Y177.243 E0.08342
G1 X163.380 Y178.867 E0.08264
G1 X161.141 Y180.498 E0.08687
G1 X158.956 Y181.978 E0.08273
G1 X156.636 Y183.439 E0.08596
G1 X154.270 Y184.816 E0.08584
G1 X152.043 Y186.015 E0.07932
G1 X149.763 Y187.151 E0.07985
G1 X147.377 Y188.243 E0.08228
G1 X144.961 Y189.255 E0.08212
G1 X142.459 Y190.206 E0.08393
G1 X139.907 Y191.078 E0.08457
G1 X137.350 Y191.856 E0.08379
G1 X134.692 Y192.567 E0.08629
G1 X132.021 Y193.183 E0.08592
G1 X129.332 Y193.707 E0.08591
G1 X126.619 Y194.138 E0.08614
G1 X123.964 Y194.467 E0.08388
G1 X121.483 Y194.694 E0.07811
G1 X119.017 Y194.842 E0.07748
G1 X116.339 Y194.915 E0.08398
G1 X113.685 Y194.899 E0.08322
G1 X110.664 Y194.772 E0.09479
G1 X108.182 Y194.581 E0.07805
G1 X105.696 Y194.312 E0.07842
G1 X102.711 Y193.883 E0.09454
G1 X100.255 Y193.442 E0.07823
G1 X97.815 Y192.925 E0.07823
G1 X94.888 Y192.197 E0.09454
G1 X92.489 Y191.512 E0.07826
G1 X90.106 Y190.749 E0.07842
G1 X87.283 Y189.736 E0.09406
G1 X84.959 Y188.811 E0.07842
G1 X82.673 Y187.816 E0.07818
G1 X80.098 Y186.590 E0.08941
G1 X77.581 Y185.280 E0.08897
G1 X75.405 Y184.053 E0.07833
G1 X73.276 Y182.763 E0.07805
G1 X70.754 Y181.111 E0.09454
G1 X68.719 Y179.677 E0.07804
G1 X66.722 Y178.172 E0.07842
G1 X64.379 Y176.275 E0.09452
G1 X62.491 Y174.636 E0.07841
G1 X60.664 Y172.946 E0.07801
G1 X58.577 Y170.878 E0.09213
G1 X56.837 Y169.032 E0.07954
G1 X55.162 Y167.136 E0.07931
G1 X53.249 Y164.813 E0.09436
G1 X51.731 Y162.833 E0.07825
G1 X50.273 Y160.802 E0.07838
G1 X48.671 Y158.404 E0.09043
G1 X47.317 Y156.219 E0.08059
G1 X46.046 Y154.011 E0.07988
G1 X44.708 Y151.492 E0.08944
G1 X43.577 Y149.175 E0.08084
G1 X42.525 Y146.829 E0.08061
G1 X41.510 Y144.351 E0.08397
G1 X40.580 Y141.841 E0.08390
G1 X39.744 Y139.329 E0.08302
G1 X38.981 Y136.754 E0.08422
G1 X38.231 Y133.839 E0.09438
G1 X37.692 Y131.396 E0.07843
G1 X37.231 Y128.943 E0.07825
G1 X36.778 Y125.970 E0.09431
G1 X36.487 Y123.486 E0.07841
G1 X36.276 Y121.008 E0.07798
G1 X36.130 Y118.164 E0.08928
G1 X36.085 Y115.323 E0.08911
G1 X36.130 Y112.807 E0.07890
G1 X36.256 Y110.290 E0.07899
G1 X36.505 Y107.341 E0.09279
G1 X36.802 Y104.850 E0.07867
G1 X37.179 Y102.362 E0.07888
G1 X37.725 Y99.441 E0.09320
G1 X38.273 Y96.985 E0.07887
G1 X38.897 Y94.553 E0.07873
G1 X39.741 Y91.679 E0.09392
G1 X40.524 Y89.321 E0.07792
G1 X41.385 Y86.973 E0.07841
G1 X42.497 Y84.237 E0.09259
G1 X43.530 Y81.927 E0.07933
G1 X44.632 Y79.659 E0.07906
G1 X46.044 Y76.994 E0.09456
G1 X47.288 Y74.831 E0.07823
G1 X48.598 Y72.710 E0.07818
G1 X50.204 Y70.297 E0.09088
G1 X51.693 Y68.218 E0.08019
G1 X53.242 Y66.196 E0.07984
G1 X55.058 Y63.986 E0.08970
G1 X56.758 Y62.056 E0.08064
G1 X58.517 Y60.184 E0.08054
G1 X60.419 Y58.289 E0.08417
G1 X62.459 Y56.393 E0.08734
G1 X64.424 Y54.686 E0.08160
G1 X66.454 Y53.038 E0.08200
G1 X68.856 Y51.224 E0.09435
G1 X70.908 Y49.783 E0.07864
G1 X72.995 Y48.415 E0.07825
G1 X75.540 Y46.868 E0.09338
G1 X77.728 Y45.640 E0.07865
G1 X79.955 Y44.481 E0.07874
G1 X82.686 Y43.178 E0.09487
G1 X84.964 Y42.187 E0.07790
G1 X87.276 Y41.266 E0.07802
G1 X90.114 Y40.248 E0.09451
G1 X92.490 Y39.488 E0.07823
G1 X94.889 Y38.803 E0.07823
G1 X97.815 Y38.075 E0.09453
G1 X100.256 Y37.558 E0.07823
G1 X102.711 Y37.117 E0.07823
G1 X105.696 Y36.688 E0.09454
G1 X108.176 Y36.419 E0.07823
G1 X110.661 Y36.228 E0.07815
G1 X113.503 Y36.106 E0.08919
G1 X116.355 Y36.085 E0.08941
G1 X118.999 Y36.157 E0.08293
G1 X121.638 Y36.318 E0.08289
G1 X124.271 Y36.566 E0.08294
G1 X126.889 Y36.901 E0.08276
G1 X129.449 Y37.314 E0.08129
G1 X131.998 Y37.812 E0.08143
G1 X134.593 Y38.409 E0.08350
G1 X137.185 Y39.097 E0.08407
G1 X139.721 Y39.863 E0.08307
G1 X142.261 Y40.723 E0.08409
G1 X144.753 Y41.662 E0.08349
G1 X147.223 Y42.689 E0.08387
G1 X149.639 Y43.790 E0.08327
G1 X152.035 Y44.981 E0.08387
G1 X154.378 Y46.245 E0.08347
G1 X156.698 Y47.599 E0.08425
G1 X158.946 Y49.015 E0.08329
G1 X161.159 Y50.515 E0.08383
G1 X163.318 Y52.086 E0.08372
G1 X165.416 Y53.724 E0.08344
G1 X167.564 Y55.523 E0.08788
G1 X169.528 Y57.286 E0.08275
G1 X171.435 Y59.116 E0.08287
G1 X173.273 Y61.000 E0.08251
G1 X175.038 Y62.934 E0.08210
G1 X176.779 Y64.974 E0.08406
G1 X178.463 Y67.089 E0.08479
G1 X180.052 Y69.229 E0.08357
G1 X181.603 Y71.473 E0.08553
G1 X183.074 Y73.766 E0.08541
G1 X184.432 Y76.048 E0.08326
G1 X185.678 Y78.332 E0.08159
G1 X188.293 Y79.500 E0.08978
G1 X190.763 Y81.309 E0.09599
G1 X192.959 Y83.438 E0.09591
G1 X196.242 Y88.817 E0.19757
G1 X197.703 Y94.969 E0.19827
G1 X197.703 Y115.158 E0.63299
G1 X197.655 Y115.618 E0.01449
G1 X197.703 Y116.080 E0.01459
G1 X197.703 Y136.273 E0.63312
G1 X196.089 Y142.760 E0.20960
G1 X194.595 Y145.483 E0.09739
G1 X194.186 Y146.034 E0.02150
G1 X193.205 Y148.469 E0.08233
G1 X190.666 Y152.196 E0.14139
G1 X186.697 Y155.707 E0.16614
G1 X183.682 Y157.338 E0.10747
G1 X183.050 Y157.552 E0.02094
G1 X182.565 Y157.318 F9000.000
G1 F1200.000
G1 X181.231 Y159.405 E0.07766
G1 X179.757 Y161.536 E0.08127
G1 X178.205 Y163.628 E0.08165
G1 X176.492 Y165.781 E0.08628
G1 X174.806 Y167.759 E0.08149
G1 X173.049 Y169.688 E0.08181
G1 X171.071 Y171.714 E0.08877
G1 X169.188 Y173.516 E0.08172
G1 X167.247 Y175.253 E0.08166
G1 X165.217 Y176.952 E0.08302
G1 X163.150 Y178.568 E0.08224
G1 X160.927 Y180.188 E0.08627
G1 X158.753 Y181.661 E0.08233
G1 X156.444 Y183.114 E0.08555
G1 X154.088 Y184.485 E0.08545
G1 X151.872 Y185.679 E0.07894
G1 X149.603 Y186.809 E0.07947
G1 X147.223 Y187.899 E0.08209
G1 X144.818 Y188.906 E0.08172
G1 X142.328 Y189.852 E0.08354
G1 X139.788 Y190.720 E0.08417
G1 X137.243 Y191.494 E0.08339
G1 X134.597 Y192.202 E0.08588
G1 X131.946 Y192.813 E0.08531
G1 X129.269 Y193.335 E0.08551
G1 X126.569 Y193.764 E0.08573
G1 X123.927 Y194.092 E0.08349
G1 X121.458 Y194.318 E0.07773
G1 X118.997 Y194.465 E0.07729
G1 X116.332 Y194.538 E0.08359
G1 X113.690 Y194.522 E0.08282
G1 X110.690 Y194.396 E0.09417
G1 X108.214 Y194.206 E0.07785
G1 X105.740 Y193.937 E0.07804
G1 X102.775 Y193.511 E0.09392
G1 X100.325 Y193.071 E0.07804
G1 X97.896 Y192.556 E0.07785
G1 X94.989 Y191.834 E0.09393
G1 X92.595 Y191.150 E0.07806
G1 X90.224 Y190.391 E0.07804
G1 X87.419 Y189.385 E0.09345
G1 X85.107 Y188.464 E0.07804
G1 X82.826 Y187.471 E0.07798
G1 X80.269 Y186.254 E0.08879
G1 X77.763 Y184.950 E0.08857
G1 X75.593 Y183.726 E0.07814
G1 X73.474 Y182.442 E0.07767
G1 X70.968 Y180.801 E0.09392
G1 X68.939 Y179.370 E0.07785
G1 X66.951 Y177.873 E0.07803
G1 X64.623 Y175.989 E0.09391
G1 X62.740 Y174.353 E0.07821
G1 X60.923 Y172.671 E0.07763
G1 X58.849 Y170.617 E0.09152
G1 X57.118 Y168.780 E0.07915
G1 X55.447 Y166.889 E0.07911
G1 X53.546 Y164.581 E0.09374
G1 X52.035 Y162.610 E0.07787
G1 X50.581 Y160.585 E0.07819
G1 X48.986 Y158.197 E0.09002
G1 X47.640 Y156.023 E0.08019
G1 X46.375 Y153.826 E0.07949
G1 X45.043 Y151.318 E0.08904
G1 X43.918 Y149.012 E0.08044
G1 X42.870 Y146.677 E0.08023
G1 X41.860 Y144.211 E0.08357
G1 X40.935 Y141.713 E0.08350
G1 X40.103 Y139.213 E0.08263
G1 X39.344 Y136.650 E0.08382
G1 X38.598 Y133.754 E0.09375
G1 X38.061 Y131.318 E0.07823
G1 X37.602 Y128.877 E0.07787
G1 X37.152 Y125.923 E0.09369
G1 X36.863 Y123.451 E0.07803
G1 X36.652 Y120.979 E0.07779
G1 X36.507 Y118.155 E0.08867
G1 X36.462 Y115.326 E0.08870
G1 X36.507 Y112.816 E0.07871
G1 X36.632 Y110.312 E0.07861
G1 X36.880 Y107.383 E0.09218
G1 X37.176 Y104.897 E0.07848
G1 X37.551 Y102.422 E0.07850
G1 X38.094 Y99.519 E0.09259
G1 X38.640 Y97.070 E0.07867
G1 X39.261 Y94.650 E0.07835
G1 X40.100 Y91.795 E0.09331
G1 X40.881 Y89.442 E0.07772
G1 X41.738 Y87.106 E0.07803
G1 X42.842 Y84.388 E0.09198
G1 X43.870 Y82.089 E0.07895
G1 X44.969 Y79.827 E0.07887
G1 X46.372 Y77.179 E0.09394
G1 X47.613 Y75.022 E0.07804
G1 X48.917 Y72.911 E0.07781
G1 X50.512 Y70.514 E0.09028
G1 X51.998 Y68.440 E0.07999
G1 X53.539 Y66.428 E0.07945
G1 X55.347 Y64.228 E0.08929
G1 X57.039 Y62.307 E0.08024
G1 X58.789 Y60.444 E0.08016
G1 X60.683 Y58.559 E0.08378
G1 X62.709 Y56.675 E0.08674
G1 X64.664 Y54.977 E0.08121
G1 X66.689 Y53.332 E0.08179
G1 X69.075 Y51.531 E0.09373
G1 X71.118 Y50.097 E0.07825
G1 X73.199 Y48.732 E0.07805
G1 X75.728 Y47.195 E0.09276
G1 X77.904 Y45.973 E0.07827
G1 X80.126 Y44.817 E0.07854
G1 X82.840 Y43.523 E0.09425
G1 X85.107 Y42.536 E0.07752
G1 X87.413 Y41.618 E0.07783
G1 X90.232 Y40.607 E0.09390
G1 X92.602 Y39.848 E0.07804
G1 X94.989 Y39.166 E0.07785
G1 X97.896 Y38.444 E0.09391
G1 X100.331 Y37.928 E0.07803
G1 X102.775 Y37.489 E0.07785
G1 X105.740 Y37.063 E0.09392
G1 X108.208 Y36.795 E0.07785
G1 X110.687 Y36.604 E0.07795
G1 X113.509 Y36.483 E0.08857
G1 X116.348 Y36.462 E0.08900
G1 X118.979 Y36.534 E0.08253
G1 X121.612 Y36.694 E0.08270
G1 X124.233 Y36.941 E0.08254
G1 X126.838 Y37.275 E0.08237
G1 X129.386 Y37.686 E0.08090
G1 X131.916 Y38.180 E0.08085
G1 X134.500 Y38.774 E0.08311
G1 X137.079 Y39.459 E0.08367
G1 X139.603 Y40.221 E0.08267
G1 X142.131 Y41.077 E0.08369
G1 X144.611 Y42.012 E0.08309
G1 X147.069 Y43.034 E0.08347
G1 X149.474 Y44.130 E0.08287
G1 X151.859 Y45.314 E0.08347
G1 X154.190 Y46.572 E0.08307
G1 X156.500 Y47.920 E0.08385
G1 X158.737 Y49.329 E0.08289
G1 X160.945 Y50.825 E0.08363
G1 X163.093 Y52.389 E0.08332
G1 X165.181 Y54.019 E0.08304
G1 X167.315 Y55.806 E0.08727
G1 X169.274 Y57.565 E0.08255
G1 X171.172 Y59.386 E0.08247
G1 X173.001 Y61.261 E0.08212
